X:226 
T:Willie Coleman's  
B:CRE3.011 (Port Liam UÃÂÃÂÃÂÃÂ­ CholmÃÂÃÂÃÂÃÂ¡in)
F:file ID: cre.3/226willie
N:This tune as played today is usually only the two parts
shown here as measures 1-4 and 9-12. I have no idea where
measures 5-8 (note not repeated) come from.
R:jig
Q:160
M:12/8
L:1/8
K:G
BAG AGE GED GBd|edB dgd age dBA|
"3"BGG AGE GED G2B|edB dBA BGF G3:|
"5"B3 AGE GED G2d|edB dgd age dBA|
"7"B2G AGE GED GDB|edB dBA AGF G3||
"9"~g3 edB dgb age|g2g edB GBd e2d|
"11"~g3 edB dgb age|dBd gdB AGF G3:|

%%%

